icons/animal_rat.svg

<svg width="48" height="48" viewBox="0 0 48 48" fill="none" xmlns="http://www.w3.org/2000/svg">
<path d="M12 27.25C12.5523 27.25 13 26.8023 13 26.25C13 25.6977 12.5523 25.25 12 25.25C11.4477 25.25 11 25.6977 11 26.25C11 26.8023 11.4477 27.25 12 27.25Z" fill="black"/>
<path fill-rule="evenodd" clip-rule="evenodd" d="M32 11C32 10.4477 32.4477 10 33 10C39.0508 10 44 14.7873 44 20.7465C44 22.2021 43.7033 23.5916 43.1656 24.8589C43.7051 26.3021 44 27.8646 44 29.4961V32.25H4.36141C4.16181 32.25 4 32.0882 4 31.8886C4 26.8337 7.49313 22.4495 12.4203 21.3203L12.5314 21.2949C12.9907 19.6188 13.9904 17.8484 14.8787 16.9602C16.4952 15.3437 19.0818 15.3094 20.6561 16.8836C20.9755 17.203 21.2287 17.5641 21.4159 17.9503C24.3938 16.8286 27.5568 16.25 30.7539 16.25C35.4071 16.25 39.4999 18.6493 41.8626 22.2783C41.9529 21.7811 42 21.2693 42 20.7465C42 15.94 37.9949 12 33 12C32.4477 12 32 11.5523 32 11ZM21.8077 19.9424C21.7502 20.9257 21.3399 21.9006 20.5795 22.661C18.963 24.2775 14.4251 26.2631 12.8508 24.6889C12.5326 24.3706 12.3598 23.9313 12.3001 23.4195C9.11166 24.3748 6.75724 27.0347 6.15239 30.25H20.0871C20.5403 27.6758 22.7114 25.6786 25.3871 25.6786H29.7484C29.777 25.6147 29.808 25.5446 29.8421 25.4677L29.8429 25.4658C29.8795 25.3832 29.9197 25.2926 29.964 25.1933C30.2589 24.5325 30.6854 23.6114 31.2693 22.6641C32.0704 21.3642 33.238 19.9022 34.8761 19.0295C33.5997 18.5264 32.2091 18.25 30.7539 18.25C27.6858 18.25 24.6517 18.8264 21.8077 19.9424ZM32.9719 23.7134C33.9808 22.0764 35.359 20.618 37.2436 20.3102C40.1213 22.347 42 25.7022 42 29.4961V30.25L22.1336 30.25C22.5476 28.7443 23.8726 27.6786 25.3871 27.6786H30.3226C30.7215 27.6786 30.9733 27.4544 31.0424 27.39C31.1381 27.3006 31.2031 27.2087 31.238 27.1563C31.3115 27.0461 31.3753 26.9207 31.4243 26.8198C31.4988 26.6661 31.5893 26.4617 31.6866 26.242C31.7205 26.1655 31.7552 26.0872 31.7903 26.0085C32.0757 25.3692 32.4591 24.5454 32.9719 23.7134ZM19.1653 21.2468C18.6331 21.779 17.3941 22.5398 16.0774 22.9706C15.4363 23.1804 14.9015 23.2693 14.5249 23.2637C14.4214 23.2622 14.3465 23.2542 14.2943 23.2454C14.2855 23.1932 14.2775 23.1182 14.276 23.0148C14.2704 22.6382 14.3593 22.1034 14.5691 21.4623C14.9999 20.1456 15.7607 18.9066 16.2929 18.3744C17.1639 17.5033 18.4838 17.5397 19.2419 18.2978C19.9999 19.0559 20.0363 20.3757 19.1653 21.2468ZM14.3203 23.3457C14.32 23.345 14.3194 23.3438 14.3186 23.3422C14.3198 23.3452 14.3203 23.3458 14.3203 23.3457C14.3204 23.3457 14.3206 23.3462 14.3203 23.3457Z" fill="black"/>
</svg>

<svg
  xmlns="http://www.w3.org/2000/svg"
  width="24"
  height="24"
  viewBox="0 0 24 24"
  fill="none"
  stroke="currentColor"
  stroke-width="2"
  stroke-linecap="round"
  stroke-linejoin="round"
>
  <path d="M12 27.25a1 1 0 1 0 0-2 1 1 0 0 0 0 2" />
  <path
    fill-rule="evenodd"
    d="M32 11a1 1 0 0 1 1-1c6.05 0 11 4.787 11 10.747 0 1.455-.297 2.845-.834 4.112.54 1.443.834 3.006.834 4.637v2.754H4.361A.36.36 0 0 1 4 31.889c0-5.055 3.493-9.44 8.42-10.569l.111-.025c.46-1.676 1.46-3.447 2.348-4.335 1.616-1.616 4.203-1.65 5.777-.076.32.319.573.68.76 1.066a26.5 26.5 0 0 1 9.338-1.7c4.653 0 8.746 2.4 11.109 6.028q.136-.747.137-1.531C42 15.94 37.995 12 33 12a1 1 0 0 1-1-1m-10.192 8.942a4.2 4.2 0 0 1-1.229 2.719c-1.616 1.616-6.154 3.602-7.728 2.028-.318-.318-.491-.758-.55-1.27a8.85 8.85 0 0 0-6.149 6.831h13.935c.453-2.574 2.624-4.571 5.3-4.571h4.361l.094-.211v-.002l.122-.273c.295-.66.721-1.582 1.305-2.529.801-1.3 1.969-2.762 3.607-3.635a11.2 11.2 0 0 0-4.122-.779c-3.068 0-6.102.576-8.946 1.692m11.164 3.771c1.009-1.637 2.387-3.095 4.272-3.403A11.23 11.23 0 0 1 42 29.496v.754H22.134c.414-1.506 1.739-2.571 3.253-2.571h4.936c.398 0 .65-.225.72-.289.095-.09.16-.181.195-.234.073-.11.137-.235.186-.336.075-.154.165-.358.263-.578l.103-.233c.286-.64.67-1.464 1.182-2.296m-13.807-2.466c-.532.532-1.77 1.293-3.088 1.724-.64.21-1.176.298-1.552.293a1.5 1.5 0 0 1-.23-.019 1.5 1.5 0 0 1-.019-.23c-.006-.377.083-.912.293-1.553.43-1.316 1.192-2.555 1.724-3.088.87-.87 2.19-.834 2.949-.076s.794 2.078-.077 2.949m-4.845 2.099-.001-.004z"
    clip-rule="evenodd"
  />
</svg>
